X: 34
M: C
L: 1/8
K: D
d3f e3g | f3d c3A | d3f e3g | f2 a4 zA |\
d3f e3g | f3d c3A | B3B c3A | B2 d6 :|
|:\
d3f e3g | f3d c3A | d3f  e3g | f2 a4 zA |\
d3f e3g | f3d c3A | (3(afd) (3(ecA) | B2 d6 |]

